X:282
M:3/4
L:1/4
K:D
A | A3/2 B/ A | F G A | G3/2 F/ E | F D A | A3/2 B/ c | d3/2 e/ c | B3/2 A/ B | A2 A | A3/2 B/ c | d A A | (A3/2 B/) G/A/ | F D D | G3/2 A/ B/G/ | (A3/2 G/) !sintro!F/F/ | G E3/2 D/ | D2 !eintro!|]
